X:0207
T:2d. Turks March.
N:Last note is G3 in the original
M:C
L:1/8
Q:1/2=72
I: :| ::
Z:Jack Campin * www.campin.me.uk * 2009
K:G
GA|B2G2 G2(AB)|c2A2  A2(dc)|B2(AG)  F2  G2|(AG)(FE) D2GA|
   B2G2 G2 AB |c2A2  A2 dc |BAGA    D2 TF2| G6         :|
Bc|dcde d2 e=f|e2c2 Tc4    |edef    efga  | f2  d2 Td3 c|
   B2G2 G2 AB |c2A2  A2 dc |B2(ATG) F2  G2|(AG)(FE) D2GA|
   B2G2 G2TAB |c2A2  A2 dc |BAGA    D2 TF2| G6         :|
<end>
<start>
